X:221
T:My Former Wife
S:Jim Bevan
Z:robin.beech@mcgill.ca
R:jig
M:6/8
L:1/8
K:Emin
EAA ABc | BAG cBA | BGE EDE | GED DB,D |
E2E ABc | BAB Bcd | ede gdB |1 BAG A2G :|2 BAG ABd |:
efg a2a | bag afg | eaf g2g | gba ged |
efg a2a | bag afg | eaf gdB |1 BAG ABd :|2 BAG A2G |]
